icons/location.svg

<svg width="16" height="16" viewBox="0 0 16 16" fill="none" xmlns="http://www.w3.org/2000/svg">
<path d="M8 1.92C9.10704 1.90303 10.1793 2.3069 11 3.05C11.3666 3.37538 11.6611 3.77395 11.8643 4.22003C12.0675 4.66612 12.1751 5.14982 12.18 5.64C12.1444 7.59379 11.509 9.4894 10.36 11.07C9.68438 12.0433 8.89178 12.9299 8 13.71C7.11524 12.9287 6.3294 12.0421 5.66 11.07C4.51097 9.4894 3.87561 7.59379 3.84 5.64C3.8424 5.15132 3.94682 4.66853 4.14657 4.22254C4.34632 3.77654 4.637 3.37717 5 3.05C5.82074 2.3069 6.89296 1.90303 8 1.92ZM8 0.639999C6.61664 0.585754 5.26803 1.08116 4.24875 2.018C3.22946 2.95484 2.56 4.22254 2.56 5.64C2.56 10.54 6.34 14.02 7.56 15.05C7.67351 15.1409 7.81459 15.1904 7.96 15.1904C8.10541 15.1904 8.24649 15.1409 8.36 15.05C9.62 14.05 13.36 10.54 13.36 5.64C13.36 4.22003 12.7017 2.98142 11.6998 2.04682C10.6979 1.11221 9.36975 0.607202 8 0.639999Z" fill="black"/>
<path d="M8.00001 4.49C8.42827 4.4821 8.84456 4.63153 9.17001 4.91C9.29363 5.01545 9.39393 5.14548 9.46452 5.29183C9.53511 5.43817 9.57444 5.59762 9.58001 5.76C9.57444 5.92238 9.53511 6.08183 9.46452 6.22817C9.39393 6.37451 9.29363 6.50455 9.17001 6.61C8.84212 6.88068 8.4302 7.02873 8.00501 7.02873C7.57983 7.02873 7.16791 6.88068 6.84001 6.61C6.71278 6.50786 6.6101 6.37846 6.53955 6.23135C6.46899 6.08423 6.43236 5.92316 6.43236 5.76C6.43236 5.59684 6.46899 5.43576 6.53955 5.28865C6.6101 5.14154 6.71278 5.01214 6.84001 4.91C7.16241 4.63302 7.57503 4.48362 8.00001 4.49ZM8.00001 3.21C7.25 3.21 6.57837 3.41466 6.04205 3.89285C5.50573 4.37103 5.14003 5.00781 5.14001 5.76C5.14001 6.44531 5.50573 7.14896 6.04205 7.62715C6.57837 8.10534 7.28264 8.35096 8.00001 8.31C8.71673 8.34828 9.41953 8.10173 9.95524 7.62408C10.491 7.14643 10.86 6.5 10.86 5.76C10.86 5.07031 10.491 4.37357 9.95524 3.89592C9.41953 3.41827 8.69531 3.21 8.00001 3.21Z" fill="black"/>
</svg>

<svg xmlns="http://www.w3.org/2000/svg" width="16" height="16" viewBox="0 0 16 16"><path d="M8 1.92a4.37 4.37 0 013 1.13 3.51 3.51 0 011.18 2.59 9.53 9.53 0 01-1.82 5.43A14.471 14.471 0 018 13.71a14.472 14.472 0 01-2.34-2.64 9.53 9.53 0 01-1.82-5.43A3.51 3.51 0 015 3.05a4.37 4.37 0 013-1.13zM8 .64a5.24 5.24 0 00-3.751 1.378C3.229 2.955 2.56 4.223 2.56 5.64c0 4.9 3.78 8.38 5 9.41a.64.64 0 00.8 0c1.26-1 5-4.51 5-9.41 0-1.42-.658-2.659-1.66-3.593A5.24 5.24 0 008 .64z"/><path d="M8 4.49a1.75 1.75 0 011.17.42 1.17 1.17 0 01.41.85 1.17 1.17 0 01-.41.85 1.83 1.83 0 01-2.33 0 1.09 1.09 0 010-1.7A1.74 1.74 0 018 4.49zm0-1.28c-.75 0-1.422.205-1.958.683-.536.478-.902 1.115-.902 1.867 0 .685.366 1.389.902 1.867A2.71 2.71 0 008 8.31a2.72 2.72 0 001.955-.686c.536-.478.905-1.124.905-1.864 0-.69-.369-1.386-.905-1.864C9.42 3.418 8.695 3.21 8 3.21z"/></svg>
